assets/icones/facebookIcon.svg

<svg width="15" height="15" viewBox="0 0 15 15" fill="none" xmlns="http://www.w3.org/2000/svg">
<path d="M7.49985 0C3.35783 0 0 3.37023 0 7.52755C0 11.0577 2.42155 14.0199 5.68819 14.8335V9.82797H4.14172V7.52755H5.68819V6.53632C5.68819 3.97425 6.84346 2.7867 9.34961 2.7867C9.8248 2.7867 10.6447 2.88034 10.9801 2.97368V5.05881C10.8031 5.04015 10.4956 5.03081 10.1137 5.03081C8.88402 5.03081 8.40883 5.49842 8.40883 6.71397V7.52755H10.8586L10.4377 9.82797H8.40883V15C12.1225 14.5499 15 11.3762 15 7.52755C14.9997 3.37023 11.6419 0 7.49985 0Z" fill="white"/>
</svg>

<svg width="15" height="15" fill="none" xmlns="http://www.w3.org/2000/svg"><path d="M7.5 0C3.358 0 0 3.37 0 7.528a7.525 7.525 0 005.688 7.306V9.828H4.142v-2.3h1.546v-.992c0-2.562 1.155-3.75 3.662-3.75.475 0 1.295.094 1.63.188v2.085a9.608 9.608 0 00-.866-.028c-1.23 0-1.705.467-1.705 1.683v.814h2.45l-.421 2.3h-2.03V15C12.124 14.55 15 11.376 15 7.528 15 3.37 11.642 0 7.5 0z" fill="#fff"/></svg>
